X: 11012
T: DELVIN SIDE.   A Strathspey
R: strathspey
B: "Edinburgh Repository of Music" v.1 p.101 #2
F: http://digital.nls.uk/special-collections-of-printed-music/pageturner.cfm?id=87776133
Z: 2015 John Chambers <jc:trillian.mit.edu>
N: The grace notes at the start of the 2nd bar are actually before the bar line.
M: C
L: 1/16
K: Edor
|:\
E3e dBAB d2E2 TB4 |{AB}d3E dBAB dD3A3F |\
E3e dBAB d2E2E3g | (gf).e.d (fe).d.c d2D2 (A2GF) :|
d3EB3E d3E BAGF | d3EB3E d3E BAGF |\
d3EB3E e2E2E2g2 | (gf).e.d (fe).d.c d2D2A3F |
d3EB3E d3E BAGF | d3EB3E d3E BAGF |\
d3EB3E e2E2E2g2 | .f.a.g.f .e.g.f.e d3D BAGF |]
